X:83
T:Mason's Apron, The
R:Reel
O:Ireland
O:England
O:Scotland
O:Shetland
O:USA
M:4/4
K:A
c2A2 ABAF|EFAB cABc|d2B2 BcBA|GABc defg|\
a2A2 cBAF|EFAB cABc|
dcde fgaf\
|1edcB A3B :|2 edcB A2 |:\
ed|\
c2ec fcec|Acec fedc|
d2fd gdfd|d2fd gfed|\
c2ec fcec|Acec fedc|dcde fgaf|edcB A2 :|
